X:319
T:Silverton Polka
R:polka 64
C:Trad. ed. Barry Callaghan
S:'Hard Core English' page 93B
O:Britain
B:Hard Core English ISBN 978 085418 201 5
Z:PJHeadford 2008
M:4/4
L:1/8
Q:1/4=180
K:G
|:Bc|g2G2 G2fe|dedc B2AB|c2E2 E2AG|FGFE D2Bc|\
g2G2 G2fe|dedc B2AB|c2E2 AGFE|1D2G2 G2:|2D2G2 G3E||
|:D2B2 BAGF|E2c2 c4|D2c2 cBAG|e2d2 B4|\
D2B2 BAGF|E2c2 c4|d2fe dcBA|A4 G3E:|
|:D2D2 DGFG|E2E2 E2cA|F2F2 (3FED EF|GFGA BGEB,|\
D2D2 DGFG|E2E2 E2cA|F2F2 (3FED EF|1G2G2 G3E:|2G2G2 G2z2||
|:B4-BDGA|B4-BDGA|B2fe dcBc|AGAB ADGA|\
B4-BGAB|c4-cBAG|F2fe dcBA|1G2B2 G2z2:|2G2B2 G2|]
W:Recorded by Peter Wyper 1915. The book has d2 for note 1 bar 1 & 5.

